1-js/05-data-types/04-array/queue.svg

<svg xmlns="http://www.w3.org/2000/svg" width="187" height="108" viewBox="0 0 187 108"><defs><style>@import url(https://fonts.googleapis.com/css?family=Open+Sans:bold,italic,bolditalic%7CPT+Mono);@font-face{font-family:&apos;PT Mono&apos;;font-weight:700;font-style:normal;src:local(&apos;PT MonoBold&apos;),url(/font/PTMonoBold.woff2) format(&apos;woff2&apos;),url(/font/PTMonoBold.woff) format(&apos;woff&apos;),url(/font/PTMonoBold.ttf) format(&apos;truetype&apos;)}</style></defs><g id="array" fill="none" fill-rule="evenodd" stroke="none" stroke-width="1"><g id="queue.svg"><path id="Shape" fill="#DBAF88" d="M90.795 43.15a2.79 2.79 0 01-.748-5.476l22.392-6.253a2.789 2.789 0 111.5 5.372l-22.392 6.253a2.76 2.76 0 01-.752.104zM90.795 54.188a2.79 2.79 0 01-.748-5.476l22.392-6.253a2.789 2.789 0 111.5 5.372l-22.392 6.253a2.76 2.76 0 01-.752.104zM90.795 64.557a2.79 2.79 0 01-.748-5.476l22.392-6.253a2.789 2.789 0 111.5 5.372l-22.392 6.253a2.8 2.8 0 01-.752.104z"/><path id="Shape" fill="#DBAF88" d="M114.837 17.439v-1.784c0-3.613-3.021-7.324-6.551-6.551-9.412 2.06-30.718 8.959-41.853 11.353-3.531.759-6.552 3.736-6.552 7.349v60.952c0 3.613 2.976 7.061 6.552 6.552 1.999-.284 4.267-.747 6.728-1.34v1.428c0 3.613 2.975 7.061 6.551 6.552 4.176-.594 26.68-7.4 32.483-9.111v-5.374c-5.567 1.638-28.034 8.308-32.483 9.349-.761.179-1.416-.635-1.416-1.416V35.74c-.078-1.792.619-3.287 2.715-3.847 6.07-1.623 21.952-5.945 31.944-8.668l1.881-.512 6.728-1.834c.781 0 1.416.635 1.416 1.416v60.953c0 .781-.665 1.203-1.416 1.416-2.596.738-5.82 1.713-9.382 2.801l.013 5.374c3.405-1.119 6.602-2.17 9.369-3.039 3.446-1.083 6.552-2.369 6.552-6.552V22.294c.001-3.612-3.021-7.324-6.551-6.551-1.841.403-4.142.993-6.728 1.696zm-35.124 9.657c-3.531.76-6.551 3.737-6.551 7.349V88.46a201.44 201.44 0 01-6.728 1.715c-.761.178-1.416-.636-1.416-1.417V29.1c-.078-1.792.619-3.287 2.715-3.847 9.143-2.443 40.554-11.014 40.554-11.014.781 0 1.416.635 1.416 1.416v3.217c-10.059 2.86-22.391 6.59-29.99 8.224z"/><path id="Shape-3" fill="#C06334" d="M158 71.817l12-12h-8V29.183h-8v30.634h-8z" transform="matrix(0 -1 -1 0 208.5 208.5)"/><path id="Shape-2" fill="#C06334" d="M30 71.817l12-12h-8V29.183h-8v30.634h-8z" transform="matrix(0 -1 -1 0 80.5 80.5)"/><text id="push" fill="#C06334" font-family="OpenSans-Bold, Open Sans" font-size="14" font-weight="bold"><tspan x="146.39" y="32">push</tspan></text><text id="shift" fill="#C06334" font-family="OpenSans-Bold, Open Sans" font-size="14" font-weight="bold"><tspan x="17.535" y="32">shift</tspan></text></g></g></svg>

<?xml version="1.0" encoding="UTF-8"?>
<svg width="187px" height="108px" viewBox="0 0 187 108" version="1.1" xmlns="http://www.w3.org/2000/svg" xmlns:xlink="http://www.w3.org/1999/xlink">
    <!-- Generator: sketchtool 61.2 (101010) - https://sketch.com -->
    <title>queue.svg</title>
    <desc>Created with sketchtool.</desc>
    <g id="array" stroke="none" stroke-width="1" fill="none" fill-rule="evenodd">
        <g id="queue.svg">
            <path d="M90.795,43.15 C89.575,43.15 88.455,42.343 88.111,41.11 C87.696,39.626 88.563,38.088 90.047,37.674 L112.439,31.421 C113.922,31.006 115.46,31.874 115.876,33.357 C116.29,34.841 115.423,36.379 113.939,36.793 L91.547,43.046 C91.296,43.117 91.043,43.15 90.795,43.15 L90.795,43.15 Z" id="Shape" fill="#E8C48F"></path>
            <path d="M90.795,54.188 C89.575,54.188 88.455,53.381 88.111,52.148 C87.696,50.664 88.563,49.126 90.047,48.712 L112.439,42.459 C113.922,42.045 115.46,42.912 115.876,44.395 C116.29,45.879 115.423,47.417 113.939,47.831 L91.547,54.084 C91.296,54.155 91.043,54.188 90.795,54.188 L90.795,54.188 Z" id="Shape" fill="#E8C48F"></path>
            <path d="M90.795,64.557 C89.575,64.557 88.455,63.75 88.111,62.517 C87.696,61.034 88.563,59.496 90.047,59.081 L112.439,52.828 C113.922,52.414 115.46,53.281 115.876,54.764 C116.29,56.248 115.423,57.786 113.939,58.2 L91.547,64.453 C91.296,64.523 91.043,64.557 90.795,64.557 L90.795,64.557 Z" id="Shape" fill="#E8C48F"></path>
            <path d="M114.837,17.439 L114.837,15.655 C114.837,12.042 111.816,8.331 108.286,9.104 C98.874,11.164 77.568,18.063 66.433,20.457 C62.902,21.216 59.881,24.193 59.881,27.806 L59.881,88.758 C59.881,92.371 62.857,95.819 66.433,95.31 C68.432,95.026 70.7,94.563 73.161,93.97 L73.161,95.398 C73.161,99.011 76.136,102.459 79.712,101.95 C83.888,101.356 106.391999,94.5499983 112.194999,92.8389983 L112.194999,87.4649977 C106.627999,89.1029977 84.161,95.773 79.712,96.814 C78.951,96.993 78.296,96.179 78.296,95.398 L78.296,35.74 C78.218,33.948 78.915,32.453 81.011,31.893 C87.081,30.27 102.963,25.948 112.955,23.225 L114.836,22.713 C118.871,21.613 121.564,20.879 121.564,20.879 C122.345,20.879 122.98,21.514 122.98,22.295 L122.98,83.248 C122.98,84.029 122.315,84.451 121.564,84.664 C118.968,85.402 115.744,86.377 112.182,87.465 L112.195,92.839 C115.6,91.72 118.797,90.669 121.564,89.8 C125.01,88.717 128.116,87.431 128.116,83.248 L128.116,22.294 C128.117,18.682 125.095,14.97 121.565,15.743 C119.724,16.146 117.423,16.736 114.837,17.439 Z M79.713,27.096 C76.182,27.856 73.162,30.833 73.162,34.445 L73.162,88.46 C70.772,89.108 68.511,89.689 66.434,90.175 C65.673,90.353 65.018,89.539 65.018,88.758 L65.018,29.1 C64.94,27.308 65.637,25.813 67.733,25.253 C76.876,22.81 108.287,14.239 108.287,14.239 C109.068,14.239 109.703,14.874 109.703,15.655 L109.703,18.872 C99.644,21.732 87.312,25.462 79.713,27.096 L79.713,27.096 Z" id="Shape" fill="#E8C48F"></path>
            <polygon id="Shape-3" fill="#EE6B47" transform="translate(158.000000, 50.500000) scale(-1, 1) rotate(-90.000000) translate(-158.000000, -50.500000) " points="158 71.8173828 170 59.8173828 162 59.8173828 162 29.1826172 154 29.1826172 154 59.8173828 146 59.8173828"></polygon>
            <polygon id="Shape-2" fill="#EE6B47" transform="translate(30.000000, 50.500000) scale(-1, 1) rotate(-90.000000) translate(-30.000000, -50.500000) " points="30 71.8173828 42 59.8173828 34 59.8173828 34 29.1826172 26 29.1826172 26 59.8173828 18 59.8173828"></polygon>
            <text id="push" font-family="OpenSans-Bold, Open Sans" font-size="14" font-weight="bold" fill="#EE6B47">
                <tspan x="146.389648" y="32">push</tspan>
            </text>
            <text id="shift" font-family="OpenSans-Bold, Open Sans" font-size="14" font-weight="bold" fill="#EE6B47">
                <tspan x="17.534668" y="32">shift</tspan>
            </text>
        </g>
    </g>
</svg>
